X:3234
L:1/8
Q:1/4=120
M:2/2
K:G
"^Moderate, walking pace." (D2 G2) |: (Bd) e2 (dB) G2 | (Bd) e2 (dB)de | e2 de dBAG | 
 (Bd) e2 (dB) G2 | (Bd) e2 dB d>e | dBAG ([GB]>[AB]) [GB]2- | [GB]4 Bd e2 | [ee]4 efge |1 
 dB AG([GB]>A) G2 :|2 dB AG ([GB]>A) [GB]2- |[M:3/4] [GB]4 || [G,D]2- |[M:2/2] [G,D]2 g3 a (ga) | 
 b/ag/-gB [G,G]4- | [G,G]2 ef g2 ga | gaab b b2 d- | d6 ef | g2 g3 a ga | ba-ag- g2 ga | 
 ba g2 efge | dBAG ([GB]A) G2 ||

